evrofasad/img/icons/sound.svg

<svg width="50" height="43" viewBox="0 0 50 43" fill="none" xmlns="http://www.w3.org/2000/svg">
<path fill-rule="evenodd" clip-rule="evenodd" d="M5.47376 13.7272H5.26323C3.86733 13.7272 2.52861 14.2731 1.54156 15.2448C0.554517 16.2166 0 17.5346 0 18.9088V24.0905C0 25.4647 0.554517 26.7827 1.54156 27.7544C2.52861 28.7262 3.86733 29.2721 5.26323 29.2721H5.47376C6.23313 29.2718 6.98358 29.4333 7.67359 29.7454C8.3636 30.0576 8.97683 30.513 9.47118 31.0805L19.0555 42.0915C20.645 43.9154 23.6845 42.8092 23.6845 40.4049V2.59439C23.6845 0.19011 20.645 -0.916172 19.0529 0.910358L9.47381 11.9162C8.97942 12.4845 8.36587 12.9406 7.67537 13.2532C6.98486 13.5658 6.23378 13.7275 5.47376 13.7272ZM41.1479 1.48552C40.8988 1.24387 40.6034 1.05351 40.2787 0.925571C39.9541 0.797629 39.6068 0.73467 39.2571 0.74037C38.9075 0.746071 38.5625 0.820318 38.2424 0.958773C37.9222 1.09723 37.6333 1.29711 37.3925 1.54675C37.1517 1.79639 36.9638 2.09077 36.8399 2.4127C36.716 2.73462 36.6585 3.07763 36.6707 3.42169C36.683 3.76575 36.7648 4.10395 36.9113 4.41653C37.0578 4.72911 37.2662 5.00981 37.5242 5.24222C47.1427 14.2376 47.1427 28.7617 37.5242 37.757C37.2662 37.9895 37.0578 38.2702 36.9113 38.5827C36.7648 38.8953 36.683 39.2335 36.6707 39.5776C36.6585 39.9216 36.716 40.2646 36.8399 40.5866C36.9638 40.9085 37.1517 41.2029 37.3925 41.4525C37.6333 41.7022 37.9222 41.902 38.2424 42.0405C38.5625 42.1789 38.9075 42.2532 39.2571 42.2589C39.6068 42.2646 39.9541 42.2016 40.2787 42.0737C40.6034 41.9458 40.8988 41.7554 41.1479 41.5137C52.9507 30.4768 52.9507 12.5224 41.1479 1.48552ZM33.3925 8.73983C32.8865 8.26639 32.2102 8.01025 31.5124 8.02774C30.8145 8.04523 30.1523 8.33493 29.6714 8.8331C29.1906 9.33127 28.9304 9.9971 28.9481 10.6841C28.9659 11.3712 29.2602 12.0231 29.7662 12.4965C35.1005 17.4839 35.1005 25.5154 29.7662 30.5027C29.5156 30.7372 29.3144 31.0179 29.1741 31.3288C29.0337 31.6398 28.9569 31.975 28.9481 32.3151C28.9393 32.6553 28.9987 32.9939 29.1228 33.3115C29.2469 33.6291 29.4333 33.9195 29.6714 34.1662C30.1523 34.6643 30.8145 34.954 31.5124 34.9715C31.8579 34.9802 32.2018 34.9218 32.5244 34.7996C32.847 34.6774 33.142 34.4939 33.3925 34.2594C40.9111 27.2279 40.9111 15.7713 33.3925 8.73983Z" fill="white"/>
</svg>

<svg width="50" height="43" fill="none" xmlns="http://www.w3.org/2000/svg"><path fill-rule="evenodd" clip-rule="evenodd" d="M5.474 13.727h-.21a5.306 5.306 0 00-3.722 1.518A5.142 5.142 0 000 18.909v5.181a5.14 5.14 0 001.542 3.664 5.305 5.305 0 003.721 1.518h.21c.76 0 1.51.161 2.2.473.69.313 1.304.768 1.798 1.335l9.584 11.012c1.59 1.823 4.63.717 4.63-1.687V2.595c0-2.405-3.04-3.511-4.632-1.685l-9.58 11.006a5.256 5.256 0 01-1.798 1.337 5.335 5.335 0 01-2.201.474zM41.148 1.486a2.668 2.668 0 00-3.755.061 2.556 2.556 0 00.132 3.695c9.618 8.996 9.618 23.52 0 32.515a2.56 2.56 0 00-.132 3.695c.24.25.53.45.85.589a2.667 2.667 0 002.905-.527c11.803-11.037 11.803-28.992 0-40.028zM33.392 8.74a2.655 2.655 0 00-1.88-.712 2.651 2.651 0 00-1.84.805 2.57 2.57 0 00-.724 1.851c.018.687.312 1.34.818 1.813 5.334 4.987 5.334 13.018 0 18.006a2.59 2.59 0 00-.592.826 2.558 2.558 0 00.497 2.837 2.668 2.668 0 003.721.093c7.52-7.031 7.52-18.488 0-25.52z" fill="#fff"/></svg>
